X:17
T:Martin's Favourite
Z: id:dc-slide-37
M:6/8
L:1/8
K:G Major
d|g2d e2d|g2d e2d|BdB ABA|G2A BGE|!
D2E G2A|B2d dBG|BdB ABA|G3 G2:|!
E|D2E G2A|B2d dBG|BdB ABA|G2A BGE|!
D2E G2A|B2d dBG|BdB ABA|G3 G2:|!

